X:166
T: Das hungernde Kind
N: Q0115B
O: Osteuropa, UdSSR, Wolgakolonien, Rothammel
N: Kleinere Melodieverianten (Strophenvarianten ?) abgedruckt.
N: Mehrere Verzierungen (Glissandi) .
R: Ballade, Hunger, Tod
M: 2/4
L: 1/8
K: G
 | ddcd | B2z2 |
eee2 | ddd2 |
dccd | BBB2 |
GGBB | d2d2 |
dccd | BBB2

@@@ Tune index: 1459
